en/guide/_images/location-job/project/archive.svg

<svg xmlns="http://www.w3.org/2000/svg" width="16" height="16" viewBox="0 0 16 16" fill="none"><path d="M14.5 3V3.5C14.6897 3.5 14.8631 3.39265 14.9476 3.22284C15.0321 3.05303 15.0133 2.85 14.899 2.69863L14.5 3ZM1.5 3L1.09897 2.70138C0.986046 2.85303 0.968323 3.05541 1.05317 3.22438C1.13802 3.39334 1.31092 3.5 1.5 3.5V3ZM13.2894 1.39727L13.6883 1.0959L13.2894 1.39727ZM3.49144 1.5H12.4914V0.5H3.49144V1.5ZM12.8904 1.69863L14.101 3.30137L14.899 2.69863L13.6883 1.0959L12.8904 1.69863ZM14.5 2.5H1.5V3.5H14.5V2.5ZM1.90103 3.29862L3.09041 1.70138L2.28835 1.10413L1.09897 2.70138L1.90103 3.29862ZM12.4914 1.5C12.6482 1.5 12.7959 1.57353 12.8904 1.69863L13.6883 1.0959C13.4048 0.720603 12.9617 0.5 12.4914 0.5V1.5ZM3.49144 0.5C3.01748 0.5 2.57141 0.723995 2.28835 1.10413L3.09041 1.70138C3.18476 1.57466 3.33345 1.5 3.49144 1.5V0.5Z" fill="black"></path><path fill-rule="evenodd" clip-rule="evenodd" d="M15 3H1V13C1 14.1046 1.89543 15 3 15H13C14.1046 15 15 14.1046 15 13V3ZM12 9L9.5 9V6L6.5 6L6.5 9L4 9L8 12L12 9Z" fill="black"></path></svg>

<svg xmlns="http://www.w3.org/2000/svg" width="16" height="16" fill="none"><path fill="#000" d="M14.5 3v.5a.5.5 0 0 0 .399-.801L14.5 3Zm-13 0-.401-.299A.5.5 0 0 0 1.5 3.5V3Zm11.79-1.603.398-.301-.399.301ZM3.49 1.5h9v-1h-9v1Zm9.4.199L14.1 3.3l.798-.602-1.21-1.603-.799.603ZM14.5 2.5h-13v1h13v-1Zm-12.599.799L3.091 1.7l-.803-.597L1.1 2.701l.802.598ZM12.491 1.5a.5.5 0 0 1 .4.199l.797-.603A1.5 1.5 0 0 0 12.491.5v1Zm-9-1a1.5 1.5 0 0 0-1.203.604l.802.597a.5.5 0 0 1 .401-.201v-1Z"/><path fill="#000" fill-rule="evenodd" d="M15 3H1v10a2 2 0 0 0 2 2h10a2 2 0 0 0 2-2V3Zm-3 6H9.5V6h-3v3H4l4 3 4-3Z" clip-rule="evenodd"/></svg>
